images/graphics/mountain_background_large.svg

<svg width="770" height="200" viewBox="0 0 770 200" fill="none" xmlns="http://www.w3.org/2000/svg">
<path fill-rule="evenodd" clip-rule="evenodd" d="M46.9992 200C47.4022 199.846 47.676 199.713 47.8057 199.605C159.947 107.181 34.659 250.427 157.822 149.372C210.373 106.263 191.58 124.437 232.865 159.86C247.458 172.407 263.246 139.36 248.234 112.94C247.793 112.176 279.112 74.6101 279.559 74.3088C279.182 71.4364 291.727 136.326 291.077 91.3896C291.077 91.0673 300.121 59.8133 305.866 59.442C318.286 58.6433 300.624 47.4967 321.969 34.1222C327.106 30.9134 334.193 14.6103 335.444 11.4226C335.654 11.7449 368.091 40.89 373.018 46.8802C378.372 53.3678 406.818 59.9955 405.762 82.7791C405.706 84.0402 416.239 106.789 415.568 118.895C415.002 129.257 443.658 141.609 454.155 167.657C467.609 201.041 450.521 135.829 464.283 156.847C475.479 173.984 483.377 167.783 502.157 195.597C502.887 196.67 504.003 198.257 505.283 200C512.279 200 505.283 200 512.279 200C509.173 192.471 505.83 165.286 501.772 162.774C494.769 158.465 467.784 140.887 467.875 135.219C468.315 108.036 503.156 154.605 493.952 135.416C476.311 98.6478 484.048 122.531 474.235 117.13C478.701 111.476 475.675 107.826 476.919 104.386C483.663 102.137 484.817 105.395 469.189 90.4788C452.569 74.6381 474.207 67.3728 465.17 47.3986C461.305 38.8793 475.465 39.692 485.026 47.4687C489.933 51.4761 526.018 67.3869 549.662 77.1673C568.414 99.1242 590.591 113.774 616.192 121.13C596.664 110.159 580.645 97.9332 568.135 84.4326C569.029 84.7338 569.679 84.909 570.029 84.979C597.727 89.533 590.849 94.6193 607.316 103.853C617.89 105.29 639.913 131.674 670.015 139.311C685.937 143.367 702.382 172.001 719.548 184.283C735.982 196.02 738.446 198.787 741.449 199.994C770 199.994 741.449 199.994 770 199.994C759.636 192.757 751.194 184.272 741.983 181.074C714.921 171.721 701.152 151.501 683.651 131.674C665.172 110.726 638.935 112.996 629.346 101.359C622.755 93.3512 584.238 72.8095 573.677 69.3415C573.411 69.0963 572.726 68.9492 572.286 68.6479C570.846 67.6741 570.147 67.6741 569.099 67.0926C566.688 65.7124 565.968 67.1276 563.361 67.0716C562.383 67.0716 559.084 64.9838 558.979 64.6965C558.692 64.5354 557.413 64.0029 557.231 63.8628C555.589 62.4826 551.277 59.414 549.243 59.2038C547.796 59.0637 545.238 57.3262 544.183 56.9899C541.373 56.0651 540.534 53.9563 536.516 53.2697C533.37 52.7372 529.324 51.6933 526.577 50.0259C526.612 49.6896 493.162 40.3155 491.345 39.8391C491.016 39.769 490.247 39.4468 489.262 39.0054C482.259 31.1166 470.894 29.5052 462.081 24.5449C458.02 22.275 441.945 30.8714 436.27 34.5565C433.293 36.5042 431.699 36.4692 429.749 38.1156C428.554 39.1245 420.02 42.9007 418.643 41.6957C417.441 40.6308 418.231 41.0021 417.022 40.7429C412.039 39.6429 413.115 42.4944 410.704 42.8307C406.405 43.4192 408.237 44.0567 406.049 44.8134C402.436 46.1095 404.672 47.0133 400.877 46.9432C397.962 42.5504 389.708 41.3244 385.843 35.5304C384.991 34.2343 377.764 27.7677 375.45 27.7187C372.536 27.6836 364.233 19.1082 359.578 17.5669C359.536 17.5459 354.112 13.7206 353.819 13.4754C353.777 13.4403 349.688 11.6328 348.598 10.6379C347.13 9.29276 341.86 7.12789 337.765 6.01393C335.969 4.97003 334.165 4.08027 332.46 3.67392C326.324 2.16762 325.681 -1.37744 321.256 0.570239C312.345 4.45159 314.33 2.80517 304.776 9.06156C303.874 8.93545 298.891 9.93031 298.402 10.4067C295.851 12.8728 293.971 15.7593 291.126 15.7033C286.017 15.6122 287.646 16.7332 281.852 19.7598C276.952 22.366 275.981 24.2577 270.62 26.4926C268.244 27.5015 262.624 32.798 260.248 32.5528C258.822 33.4216 256.446 31.4529 253.643 35.7756C253.133 36.5533 249.981 36.4692 247.046 40.1544C246.927 40.3155 243.921 41.7868 243.097 42.6345C238.036 47.826 240.762 44.6382 238.477 45.9274C235.262 47.7699 231.858 49.7877 228.433 51.1398C221.64 53.7601 221.926 55.7288 218.656 57.6625C214.322 60.2337 214.043 61.74 208.493 63.6667C205.502 64.7316 195.675 72.4732 192.432 73.0618C189.308 73.5942 177.818 84.4045 173.303 86.3662C172.946 86.5414 171.863 87.3611 171.556 87.6413C164.916 88.44 162.665 92.9939 156.976 95.7193C154.376 96.9594 153.803 98.5708 150.595 99.4605C146.038 100.687 139.44 107.433 137.546 108.071C133.709 109.402 127.489 115.231 123.959 114.895C123.904 114.874 113.35 120.829 113.056 121.256C112.763 121.663 112.392 121.803 112.406 122.195C108.52 125.243 111.037 119.89 103.593 128.732C98.8265 134.386 86.4696 138.176 78.6068 146.926C76.8595 148.874 76.1117 144.18 67.4591 157.113C59.7711 168.575 52.8169 167.111 43.1229 174.867C35.8682 180.661 31.0037 178.159 20.0657 186.917C13.923 191.828 7.26354 196.165 0.507141 200C46.9992 200 0.507145 200 46.9992 200Z" fill="white" fill-opacity="0.04"/>
</svg>

<svg xmlns="http://www.w3.org/2000/svg" width="770" height="200" fill="none"><path fill="#fff" fill-opacity=".04" fill-rule="evenodd" d="M46.999 200c.403-.154.677-.287.806-.395 112.141-92.424-13.147 50.822 110.016-50.233 52.551-43.109 33.758-24.935 75.043 10.488 14.593 12.547 30.381-20.5 15.369-46.92-.441-.764 30.878-38.33 31.325-38.631-.377-2.872 12.168 62.017 11.518 17.081 0-.322 9.044-31.576 14.789-31.948 12.42-.799-5.242-11.945 16.103-25.32 5.137-3.209 12.224-19.512 13.475-22.7.21.322 32.647 29.467 37.574 35.458 5.354 6.488 33.8 13.115 32.744 35.899-.056 1.261 10.477 24.01 9.806 36.116-.566 10.362 28.09 22.714 38.587 48.762 13.454 33.384-3.634-31.828 10.128-10.81 11.196 17.137 19.094 10.936 37.874 38.75.73 1.073 1.846 2.66 3.126 4.403h6.996c-3.106-7.529-6.449-34.714-10.507-37.226-7.003-4.309-33.988-21.887-33.897-27.555.44-27.183 35.281 19.386 26.077.197-17.641-36.768-9.904-12.885-19.717-18.286 4.466-5.654 1.44-9.304 2.684-12.744 6.744-2.249 7.898 1.009-7.73-13.907-16.62-15.841 5.018-23.106-4.019-43.08-3.865-8.519 10.295-7.707 19.856.07 4.907 4.007 40.992 19.918 64.636 29.699 18.752 21.957 40.929 36.607 66.53 43.963-19.528-10.971-35.547-23.197-48.057-36.697.894.301 1.544.476 1.894.546 27.698 4.554 20.82 9.64 37.287 18.874 10.574 1.437 32.597 27.821 62.699 35.458 15.922 4.056 32.367 32.69 49.533 44.972 16.434 11.737 18.898 14.504 21.901 15.711H770c-10.364-7.237-18.806-15.722-28.017-18.92-27.062-9.353-40.831-29.573-58.332-49.4-18.479-20.948-44.716-18.678-54.305-30.315-6.591-8.008-45.108-28.549-55.669-32.017-.266-.245-.951-.392-1.391-.694-1.44-.974-2.139-.974-3.187-1.555-2.411-1.38-3.131.035-5.738-.021-.978 0-4.277-2.088-4.382-2.375-.287-.161-1.566-.694-1.748-.834-1.642-1.38-5.954-4.449-7.988-4.659-1.447-.14-4.005-1.878-5.06-2.214-2.81-.925-3.649-3.034-7.667-3.72-3.146-.532-7.192-1.576-9.939-3.244.035-.336-33.415-9.71-35.232-10.187-.329-.07-1.098-.392-2.083-.834-7.003-7.889-18.368-9.5-27.181-14.461-4.061-2.27-20.136 6.327-25.811 10.012-2.977 1.948-4.571 1.913-6.521 3.559-1.195 1.009-9.729 4.785-11.106 3.58-1.202-1.065-.412-.694-1.621-.953-4.983-1.1-3.907 1.752-6.318 2.088-4.299.588-2.467 1.226-4.655 1.983-3.613 1.296-1.377 2.2-5.172 2.13-2.915-4.393-11.169-5.619-15.034-11.413-.852-1.296-8.079-7.763-10.393-7.812-2.914-.035-11.217-8.61-15.872-10.152-.042-.021-5.466-3.846-5.759-4.091-.042-.035-4.131-1.843-5.221-2.838-1.468-1.345-6.738-3.51-10.833-4.624-1.796-1.044-3.6-1.934-5.305-2.34-6.136-1.506-6.779-5.051-11.204-3.104-8.911 3.881-6.926 2.235-16.48 8.491-.902-.126-5.885.869-6.374 1.345-2.551 2.466-4.431 5.353-7.276 5.297-5.109-.091-3.48 1.03-9.274 4.056-4.9 2.606-5.871 4.498-11.232 6.733-2.376 1.009-7.996 6.305-10.372 6.06-1.426.869-3.802-1.1-6.605 3.223-.51.778-3.662.694-6.597 4.379-.119.161-3.125 1.632-3.949 2.48-5.061 5.191-2.335 2.004-4.62 3.293-3.215 1.843-6.619 3.86-10.044 5.212-6.793 2.62-6.507 4.589-9.777 6.523-4.334 2.571-4.613 4.078-10.163 6.004-2.991 1.065-12.818 8.807-16.061 9.395-3.124.532-14.614 11.343-19.129 13.304-.357.175-1.44.995-1.747 1.275-6.64.799-8.891 5.353-14.58 8.078-2.6 1.24-3.173 2.852-6.381 3.741-4.557 1.227-11.155 7.973-13.049 8.611-3.837 1.331-10.057 7.16-13.587 6.824-.055-.021-10.609 5.934-10.903 6.361-.293.407-.664.547-.65.939-3.886 3.048-1.369-2.305-8.813 6.537-4.767 5.654-17.123 9.444-24.986 18.194-1.747 1.948-2.495-2.746-11.148 10.187-7.688 11.462-14.642 9.998-24.336 17.754-7.255 5.794-12.119 3.292-23.057 12.05C13.923 191.828 7.264 196.165.507 200h46.492z"/></svg>
